libs/ui/packages/crypto-icons/src/svg/MCO.svg

<svg width="24" height="24" viewBox="0 0 24 24" fill="none">
<path d="M11.985 3.75677L19.125 7.86903V16.119L11.9932 20.2433L11.9355 20.229L4.875 16.119V7.86903L11.9355 3.75677H11.985ZM11.9618 4.61027L5.625 8.30027V15.6878L11.961 19.377L12.735 18.9293L18.375 15.6855V8.30177L12.735 5.03927L11.9618 4.61027ZM6.60675 12.5678L8.4825 11.1653L10.1407 12.2243V14.1293L11.3955 15.3383L11.3947 15.9053L10.1858 17.0378H9.165L6.6075 12.5678H6.60675ZM12.534 15.9068L12.5317 15.3368L13.782 14.1293V12.2243L15.4222 11.1518L17.2943 12.5685L14.7495 17.025H13.7415L12.534 15.9068ZM10.7565 12.2243L10.146 10.626H13.7745L13.176 12.2243L13.353 14.0108L11.9528 14.0138L10.569 14.016L10.7565 12.2243ZM11.9528 10.188L8.50425 10.1865L9.1455 7.32152H14.7435L15.4185 10.1903L11.9528 10.188Z" fill="#103F68"/>
</svg>

<svg width="24" height="24" viewBox="0 0 24 24" fill="none"><path fill="#103f68" d="m11.985 3.757 7.14 4.112v8.25l-7.132 4.124-.058-.014-7.06-4.11v-8.25l7.06-4.112zm-.023.853L5.625 8.3v7.388l6.336 3.689.774-.448 5.64-3.243V8.301l-5.64-3.263zm-5.355 7.958 1.875-1.403 1.659 1.06v1.904l1.255 1.21-.001.566-1.21 1.133h-1.02zm5.927 3.339-.002-.57 1.25-1.208v-1.905l1.64-1.072 1.872 1.417-2.545 4.456h-1.008zm-1.777-3.683-.611-1.598h3.628l-.598 1.598.177 1.787-1.4.003-1.384.002zm1.196-2.036-3.449-.002.642-2.864h5.597l.675 2.868z"/></svg>
